bernoullicharts/arcsin_x_sqrt_1-x_x_-1_bound.svg

<?xml version="1.0" encoding="utf-8" standalone="no"?>
<!DOCTYPE svg PUBLIC "-//W3C//DTD SVG 1.1//EN"
  "http://www.w3.org/Graphics/SVG/1.1/DTD/svg11.dtd">
<!-- Created with matplotlib (https://matplotlib.org/) -->
<svg height="345.6pt" version="1.1" viewBox="0 0 460.8 345.6" width="460.8pt" xmlns="http://www.w3.org/2000/svg" xmlns:xlink="http://www.w3.org/1999/xlink">
 <defs>
  <style type="text/css">
*{stroke-linecap:butt;stroke-linejoin:round;}
  </style>
 </defs>
 <g id="figure_1">
  <g id="patch_1">
   <path d="M 0 345.6 
L 460.8 345.6 
L 460.8 0 
L 0 0 
z
" style="fill:#ffffff;"/>
  </g>
  <g id="axes_1">
   <g id="patch_2">
    <path d="M 57.6 307.584 
L 414.72 307.584 
L 414.72 41.472 
L 57.6 41.472 
z
" style="fill:#ffffff;"/>
   </g>
   <g id="matplotlib.axis_1">
    <g id="xtick_1">
     <g id="line2d_1">
      <defs>
       <path d="M 0 0 
L 0 3.5 
" id="m019e8cd56c" style="stroke:#000000;stroke-width:0.8;"/>
      </defs>
      <g>
       <use style="stroke:#000000;stroke-width:0.8;" x="73.800255" xlink:href="#m019e8cd56c" y="307.584"/>
      </g>
     </g>
     <g id="text_1">
      <text style="font-family:DejaVu Sans;font-size:10px;font-style:normal;font-weight:normal;text-anchor:middle;" transform="rotate(-0, 73.800255, 322.182437)" x="73.800255" y="322.182437">0.0</text>
     </g>
    </g>
    <g id="xtick_2">
     <g id="line2d_2">
      <g>
       <use style="stroke:#000000;stroke-width:0.8;" x="138.744153" xlink:href="#m019e8cd56c" y="307.584"/>
      </g>
     </g>
     <g id="text_2">
      <text style="font-family:DejaVu Sans;font-size:10px;font-style:normal;font-weight:normal;text-anchor:middle;" transform="rotate(-0, 138.744153, 322.182437)" x="138.744153" y="322.182437">0.2</text>
     </g>
    </g>
    <g id="xtick_3">
     <g id="line2d_3">
      <g>
       <use style="stroke:#000000;stroke-width:0.8;" x="203.688051" xlink:href="#m019e8cd56c" y="307.584"/>
      </g>
     </g>
     <g id="text_3">
      <text style="font-family:DejaVu Sans;font-size:10px;font-style:normal;font-weight:normal;text-anchor:middle;" transform="rotate(-0, 203.688051, 322.182437)" x="203.688051" y="322.182437">0.4</text>
     </g>
    </g>
    <g id="xtick_4">
     <g id="line2d_4">
      <g>
       <use style="stroke:#000000;stroke-width:0.8;" x="268.631949" xlink:href="#m019e8cd56c" y="307.584"/>
      </g>
     </g>
     <g id="text_4">
      <text style="font-family:DejaVu Sans;font-size:10px;font-style:normal;font-weight:normal;text-anchor:middle;" transform="rotate(-0, 268.631949, 322.182437)" x="268.631949" y="322.182437">0.6</text>
     </g>
    </g>
    <g id="xtick_5">
     <g id="line2d_5">
      <g>
       <use style="stroke:#000000;stroke-width:0.8;" x="333.575847" xlink:href="#m019e8cd56c" y="307.584"/>
      </g>
     </g>
     <g id="text_5">
      <text style="font-family:DejaVu Sans;font-size:10px;font-style:normal;font-weight:normal;text-anchor:middle;" transform="rotate(-0, 333.575847, 322.182437)" x="333.575847" y="322.182437">0.8</text>
     </g>
    </g>
    <g id="xtick_6">
     <g id="line2d_6">
      <g>
       <use style="stroke:#000000;stroke-width:0.8;" x="398.519745" xlink:href="#m019e8cd56c" y="307.584"/>
      </g>
     </g>
     <g id="text_6">
      <text style="font-family:DejaVu Sans;font-size:10px;font-style:normal;font-weight:normal;text-anchor:middle;" transform="rotate(-0, 398.519745, 322.182437)" x="398.519745" y="322.182437">1.0</text>
     </g>
    </g>
    <g id="text_7">
     <text style="font-family:DejaVu Sans;font-size:10px;font-style:normal;font-weight:normal;text-anchor:middle;" transform="rotate(-0, 236.16, 335.860562)" x="236.16" y="335.860562">Input Coin's Heads Probability (λ)</text>
    </g>
   </g>
   <g id="matplotlib.axis_2">
    <g id="ytick_1">
     <g id="line2d_7">
      <defs>
       <path d="M 0 0 
L -3.5 0 
" id="m1a3f81bd28" style="stroke:#000000;stroke-width:0.8;"/>
      </defs>
      <g>
       <use style="stroke:#000000;stroke-width:0.8;" x="57.6" xlink:href="#m1a3f81bd28" y="295.488001"/>
      </g>
     </g>
     <g id="text_8">
      <text style="font-family:DejaVu Sans;font-size:10px;font-style:normal;font-weight:normal;text-anchor:end;" transform="rotate(-0, 50.6, 299.28722)" x="50.6" y="299.28722">0</text>
     </g>
    </g>
    <g id="ytick_2">
     <g id="line2d_8">
      <g>
       <use style="stroke:#000000;stroke-width:0.8;" x="57.6" xlink:href="#m1a3f81bd28" y="236.425501"/>
      </g>
     </g>
     <g id="text_9">
      <text style="font-family:DejaVu Sans;font-size:10px;font-style:normal;font-weight:normal;text-anchor:end;" transform="rotate(-0, 50.6, 240.22472)" x="50.6" y="240.22472">1</text>
     </g>
    </g>
    <g id="ytick_3">
     <g id="line2d_9">
      <g>
       <use style="stroke:#000000;stroke-width:0.8;" x="57.6" xlink:href="#m1a3f81bd28" y="177.363001"/>
      </g>
     </g>
     <g id="text_10">
      <text style="font-family:DejaVu Sans;font-size:10px;font-style:normal;font-weight:normal;text-anchor:end;" transform="rotate(-0, 50.6, 181.162219)" x="50.6" y="181.162219">2</text>
     </g>
    </g>
    <g id="ytick_4">
     <g id="line2d_10">
      <g>
       <use style="stroke:#000000;stroke-width:0.8;" x="57.6" xlink:href="#m1a3f81bd28" y="118.3005"/>
      </g>
     </g>
     <g id="text_11">
      <text style="font-family:DejaVu Sans;font-size:10px;font-style:normal;font-weight:normal;text-anchor:end;" transform="rotate(-0, 50.6, 122.099719)" x="50.6" y="122.099719">3</text>
     </g>
    </g>
    <g id="ytick_5">
     <g id="line2d_11">
      <g>
       <use style="stroke:#000000;stroke-width:0.8;" x="57.6" xlink:href="#m1a3f81bd28" y="59.238"/>
      </g>
     </g>
     <g id="text_12">
      <text style="font-family:DejaVu Sans;font-size:10px;font-style:normal;font-weight:normal;text-anchor:end;" transform="rotate(-0, 50.6, 63.037219)" x="50.6" y="63.037219">4</text>
     </g>
    </g>
    <g id="text_13">
     <text style="font-family:DejaVu Sans;font-size:10px;font-style:normal;font-weight:normal;text-anchor:middle;" transform="rotate(-90, 38.157812, 174.528)" x="38.157812" y="174.528">Coin Flips Needed</text>
    </g>
   </g>
   <g id="line2d_12">
    <path clip-path="url(#p6280bbabc6)" d="M 73.832727 236.43436 
L 77.112066 237.325525 
L 80.391405 238.209902 
L 83.670744 239.087716 
L 86.950083 239.959186 
L 90.229421 240.824516 
L 93.50876 241.683903 
L 96.788099 242.537534 
L 100.067438 243.385585 
L 103.346777 244.228227 
L 106.626116 245.065617 
L 109.905455 245.897907 
L 113.184793 246.725241 
L 116.464132 247.547751 
L 119.743471 248.365565 
L 123.02281 249.178801 
L 126.302149 249.98757 
L 129.581488 250.791974 
L 132.860826 251.592109 
L 136.140165 252.388063 
L 139.419504 253.179916 
L 142.698843 253.967742 
L 145.978182 254.751605 
L 149.257521 255.531566 
L 152.53686 256.307674 
L 155.816198 257.079973 
L 159.095537 257.848502 
L 162.374876 258.613288 
L 165.654215 259.374354 
L 168.933554 260.131715 
L 172.212893 260.885379 
L 175.492231 261.635346 
L 178.77157 262.381607 
L 182.050909 263.12415 
L 185.330248 263.862951 
L 188.609587 264.597981 
L 191.888926 265.329201 
L 195.168264 266.056567 
L 198.447603 266.780025 
L 201.726942 267.499513 
L 205.006281 268.214963 
L 208.28562 268.926296 
L 211.564959 269.633426 
L 214.844298 270.336259 
L 218.123636 271.034691 
L 221.402975 271.728611 
L 224.682314 272.417897 
L 227.961653 273.102421 
L 231.240992 273.782042 
L 234.520331 274.456613 
L 237.799669 275.125976 
L 241.079008 275.789964 
L 244.358347 276.448399 
L 247.637686 277.101095 
L 250.917025 277.747854 
L 254.196364 278.38847 
L 257.475702 279.022726 
L 260.755041 279.650393 
L 264.03438 280.271233 
L 267.313719 280.884997 
L 270.593058 281.491426 
L 273.872397 282.09025 
L 277.151736 282.681185 
L 280.431074 283.263942 
L 283.710413 283.838214 
L 286.989752 284.403689 
L 290.269091 284.960041 
L 293.54843 285.506932 
L 296.827769 286.044015 
L 300.107107 286.57093 
L 303.386446 287.087309 
L 306.665785 287.592769 
L 309.945124 288.08692 
L 313.224463 288.569359 
L 316.503802 289.039674 
L 319.78314 289.497441 
L 323.062479 289.942229 
L 326.341818 290.373594 
L 329.621157 290.791086 
L 332.900496 291.194243 
L 336.179835 291.582597 
L 339.459174 291.955672 
L 342.738512 292.312983 
L 346.017851 292.65404 
L 349.29719 292.978346 
L 352.576529 293.285399 
L 355.855868 293.574693 
L 359.135207 293.845719 
L 362.414545 294.097964 
L 365.693884 294.330915 
L 368.973223 294.544058 
L 372.252562 294.73688 
L 375.531901 294.908872 
L 378.81124 295.059526 
L 382.090579 295.188342 
L 385.369917 295.294827 
L 388.649256 295.378498 
L 391.928595 295.438885 
L 395.207934 295.47553 
L 398.487273 295.488 
" style="fill:none;stroke:#1f77b4;stroke-linecap:square;stroke-width:1.5;"/>
   </g>
   <g id="line2d_13">
    <path clip-path="url(#p6280bbabc6)" d="M 73.832727 92.903625 
L 77.112066 90.068625 
L 80.391405 91.249875 
L 83.670744 92.07675 
L 86.950083 92.07675 
L 90.229421 87.35175 
L 93.50876 89.123625 
L 96.788099 90.65925 
L 100.067438 89.596125 
L 103.346777 94.084875 
L 106.626116 92.903625 
L 109.905455 96.093 
L 113.184793 93.612375 
L 116.464132 96.80175 
L 119.743471 96.5655 
L 123.02281 88.29675 
L 126.302149 99.63675 
L 129.581488 96.5655 
L 132.860826 98.4555 
L 136.140165 94.6755 
L 139.419504 94.793625 
L 142.698843 101.05425 
L 145.978182 95.974875 
L 149.257521 99.63675 
L 152.53686 101.408625 
L 155.816198 100.10925 
L 159.095537 98.69175 
L 162.374876 95.974875 
L 165.654215 99.046125 
L 168.933554 98.928 
L 172.212893 101.644875 
L 175.492231 102.708 
L 178.77157 98.809875 
L 182.050909 100.227375 
L 185.330248 98.809875 
L 188.609587 103.41675 
L 191.888926 101.763 
L 195.168264 102.708 
L 198.447603 101.763 
L 201.726942 103.41675 
L 205.006281 102.94425 
L 208.28562 100.936125 
L 211.564959 102.708 
L 214.844298 104.83425 
L 218.123636 104.1255 
L 221.402975 106.25175 
L 224.682314 102.826125 
L 227.961653 100.699875 
L 231.240992 103.88925 
L 234.520331 100.10925 
L 237.799669 105.543 
L 241.079008 104.479875 
L 244.358347 107.078625 
L 247.637686 106.25175 
L 250.917025 102.47175 
L 254.196364 104.83425 
L 257.475702 103.41675 
L 260.755041 108.496125 
L 264.03438 102.94425 
L 267.313719 106.25175 
L 270.593058 104.952375 
L 273.872397 106.488 
L 277.151736 105.897375 
L 280.431074 103.771125 
L 283.710413 107.19675 
L 286.989752 104.007375 
L 290.269091 104.007375 
L 293.54843 105.30675 
L 296.827769 104.1255 
L 300.107107 103.534875 
L 303.386446 107.078625 
L 306.665785 105.424875 
L 309.945124 102.2355 
L 313.224463 106.369875 
L 316.503802 106.842375 
L 319.78314 102.826125 
L 323.062479 104.1255 
L 326.341818 106.369875 
L 329.621157 109.08675 
L 332.900496 102.2355 
L 336.179835 102.353625 
L 339.459174 99.16425 
L 342.738512 108.732375 
L 346.017851 104.716125 
L 349.29719 96.093 
L 352.576529 99.4005 
L 355.855868 101.763 
L 359.135207 92.431125 
L 362.414545 102.589875 
L 365.693884 97.74675 
L 368.973223 103.771125 
L 372.252562 93.7305 
L 375.531901 88.887375 
L 378.81124 98.928 
L 382.090579 89.832375 
L 385.369917 80.382375 
L 388.649256 93.96675 
L 391.928595 77.42925 
L 395.207934 55.458 
L 398.487273 53.568 
" style="fill:none;stroke:#ff7f0e;stroke-linecap:square;stroke-width:1.5;"/>
   </g>
   <g id="patch_3">
    <path d="M 57.6 307.584 
L 57.6 41.472 
" style="fill:none;stroke:#000000;stroke-linecap:square;stroke-linejoin:miter;stroke-width:0.8;"/>
   </g>
   <g id="patch_4">
    <path d="M 414.72 307.584 
L 414.72 41.472 
" style="fill:none;stroke:#000000;stroke-linecap:square;stroke-linejoin:miter;stroke-width:0.8;"/>
   </g>
   <g id="patch_5">
    <path d="M 57.6 307.584 
L 414.72 307.584 
" style="fill:none;stroke:#000000;stroke-linecap:square;stroke-linejoin:miter;stroke-width:0.8;"/>
   </g>
   <g id="patch_6">
    <path d="M 57.6 41.472 
L 414.72 41.472 
" style="fill:none;stroke:#000000;stroke-linecap:square;stroke-linejoin:miter;stroke-width:0.8;"/>
   </g>
   <g id="text_14">
    <text style="font-family:DejaVu Sans;font-size:12px;font-style:normal;font-weight:normal;text-anchor:middle;" transform="rotate(-0, 236.16, 35.472)" x="236.16" y="35.472">Coin Flips for arcsin(x)+sqrt(1-x*x)-1</text>
   </g>
   <g id="legend_1">
    <g id="patch_7">
     <path d="M 64.6 78.82825 
L 307.875 78.82825 
Q 309.875 78.82825 309.875 76.82825 
L 309.875 48.472 
Q 309.875 46.472 307.875 46.472 
L 64.6 46.472 
Q 62.6 46.472 62.6 48.472 
L 62.6 76.82825 
Q 62.6 78.82825 64.6 78.82825 
z
" style="fill:#ffffff;opacity:0.8;stroke:#cccccc;stroke-linejoin:miter;"/>
    </g>
    <g id="line2d_14">
     <path d="M 66.6 54.570437 
L 86.6 54.570437 
" style="fill:none;stroke:#1f77b4;stroke-linecap:square;stroke-width:1.5;"/>
    </g>
    <g id="line2d_15"/>
    <g id="text_15">
     <text style="font-family:DejaVu Sans;font-size:10px;font-style:normal;font-weight:normal;text-anchor:start;" transform="rotate(-0, 94.6, 58.070437)" x="94.6" y="58.070437">Coin Flip Lower Bound (Mendo)</text>
    </g>
    <g id="line2d_16">
     <path d="M 66.6 69.248562 
L 86.6 69.248562 
" style="fill:none;stroke:#ff7f0e;stroke-linecap:square;stroke-width:1.5;"/>
    </g>
    <g id="line2d_17"/>
    <g id="text_16">
     <text style="font-family:DejaVu Sans;font-size:10px;font-style:normal;font-weight:normal;text-anchor:start;" transform="rotate(-0, 94.6, 72.748562)" x="94.6" y="72.748562">Avg. Coins Flipped arcsin(x)+sqrt(1-x*x)-1</text>
    </g>
   </g>
  </g>
 </g>
 <defs>
  <clipPath id="p6280bbabc6">
   <rect height="266.112" width="357.12" x="57.6" y="41.472"/>
  </clipPath>
 </defs>
</svg>

<svg height="460.8" viewBox="0 0 460.8 345.6" width="614.4" xmlns="http://www.w3.org/2000/svg" xmlns:xlink="http://www.w3.org/1999/xlink"><defs><style>*{stroke-linecap:butt;stroke-linejoin:round}</style></defs><g id="figure_1"><path d="M0 345.6h460.8V0H0z" fill="#fff" id="patch_1"/><g id="axes_1"><path d="M57.6 307.584h357.12V41.472H57.6z" fill="#fff" id="patch_2"/><g id="matplotlib.axis_1"><g id="xtick_1"><g id="line2d_1"><defs><path d="M0 0v3.5" id="m019e8cd56c" stroke="#000" stroke-width=".8"/></defs><use x="73.8" xlink:href="#m019e8cd56c" y="307.584" stroke="#000" stroke-width=".8"/></g><text x="73.8" y="322.182" font-family="DejaVu Sans" font-size="10" font-weight="400" text-anchor="middle" id="text_1">0.0</text></g><g id="xtick_2"><use x="138.744" xlink:href="#m019e8cd56c" y="307.584" stroke="#000" stroke-width=".8" id="line2d_2"/><text x="138.744" y="322.182" font-family="DejaVu Sans" font-size="10" font-weight="400" text-anchor="middle" id="text_2">0.2</text></g><g id="xtick_3"><use x="203.688" xlink:href="#m019e8cd56c" y="307.584" stroke="#000" stroke-width=".8" id="line2d_3"/><text x="203.688" y="322.182" font-family="DejaVu Sans" font-size="10" font-weight="400" text-anchor="middle" id="text_3">0.4</text></g><g id="xtick_4"><use x="268.632" xlink:href="#m019e8cd56c" y="307.584" stroke="#000" stroke-width=".8" id="line2d_4"/><text x="268.632" y="322.182" font-family="DejaVu Sans" font-size="10" font-weight="400" text-anchor="middle" id="text_4">0.6</text></g><g id="xtick_5"><use x="333.576" xlink:href="#m019e8cd56c" y="307.584" stroke="#000" stroke-width=".8" id="line2d_5"/><text x="333.576" y="322.182" font-family="DejaVu Sans" font-size="10" font-weight="400" text-anchor="middle" id="text_5">0.8</text></g><g id="xtick_6"><use x="398.52" xlink:href="#m019e8cd56c" y="307.584" stroke="#000" stroke-width=".8" id="line2d_6"/><text x="398.52" y="322.182" font-family="DejaVu Sans" font-size="10" font-weight="400" text-anchor="middle" id="text_6">1.0</text></g><text x="236.16" y="335.861" font-family="DejaVu Sans" font-size="10" font-weight="400" text-anchor="middle" id="text_7">Input Coin&apos;s Heads Probability (λ)</text></g><g id="matplotlib.axis_2"><g id="ytick_1"><g id="line2d_7"><defs><path d="M0 0h-3.5" id="m1a3f81bd28" stroke="#000" stroke-width=".8"/></defs><use x="57.6" xlink:href="#m1a3f81bd28" y="295.488" stroke="#000" stroke-width=".8"/></g><text x="50.6" y="299.287" font-family="DejaVu Sans" font-size="10" font-weight="400" text-anchor="end" id="text_8">0</text></g><g id="ytick_2"><use x="57.6" xlink:href="#m1a3f81bd28" y="236.426" stroke="#000" stroke-width=".8" id="line2d_8"/><text x="50.6" y="240.225" font-family="DejaVu Sans" font-size="10" font-weight="400" text-anchor="end" id="text_9">1</text></g><g id="ytick_3"><use x="57.6" xlink:href="#m1a3f81bd28" y="177.363" stroke="#000" stroke-width=".8" id="line2d_9"/><text x="50.6" y="181.162" font-family="DejaVu Sans" font-size="10" font-weight="400" text-anchor="end" id="text_10">2</text></g><g id="ytick_4"><use x="57.6" xlink:href="#m1a3f81bd28" y="118.3" stroke="#000" stroke-width=".8" id="line2d_10"/><text x="50.6" y="122.1" font-family="DejaVu Sans" font-size="10" font-weight="400" text-anchor="end" id="text_11">3</text></g><g id="ytick_5"><use x="57.6" xlink:href="#m1a3f81bd28" y="59.238" stroke="#000" stroke-width=".8" id="line2d_11"/><text x="50.6" y="63.037" font-family="DejaVu Sans" font-size="10" font-weight="400" text-anchor="end" id="text_12">4</text></g><text transform="rotate(-90 38.158 174.528)" x="38.158" y="174.528" font-family="DejaVu Sans" font-size="10" font-weight="400" text-anchor="middle" id="text_13">Coin Flips Needed</text></g><path clip-path="url(#p6280bbabc6)" d="M73.833 236.434l3.28.892 3.278.884 3.28.878 3.28.871 3.278.866 3.28.859 3.28.854 3.278.848 3.28.842 3.28.838 3.278.832 3.28.827 3.28.823 3.278.818 3.28.813 3.28.809 3.278.804 3.28.8 3.28.796 3.279.792 3.279.788 3.28.784 3.279.78 3.279.776 3.28.772 3.279.769 3.279.764 3.28.761 3.279.758 3.279.753 3.28.75 3.279.747 3.279.742 3.28.739 3.279.735 3.279.731 3.28.728 3.279.723 3.279.72 3.28.715 3.279.711 3.279.707 3.28.703 3.279.699 3.279.694 3.28.689 3.279.684 3.279.68 3.28.675 3.279.669 3.279.664 3.28.658 3.279.653 3.279.647 3.28.64 3.279.635 3.279.627 3.28.621 3.279.614 3.28.606 3.278.6 3.28.59 3.28.583 3.278.574 3.28.566 3.28.556 3.278.547 3.28.537 3.28.527 3.278.516 3.28.506 3.28.494 3.278.482 3.28.47 3.28.458 3.278.445 3.28.432 3.28.417 3.278.403 3.28.389 3.28.373 3.279.357 3.279.341 3.28.324 3.279.307 3.279.29 3.28.27 3.279.253 3.279.233 3.28.213 3.279.193 3.279.172 3.28.15 3.279.13 3.279.106 3.28.083 3.279.06 3.279.038 3.28.012" fill="none" stroke="#1f77b4" stroke-linecap="square" stroke-width="1.5" id="line2d_12"/><path clip-path="url(#p6280bbabc6)" d="M73.833 92.904l3.28-2.835 3.278 1.18 3.28.828h3.28l3.278-4.725 3.28 1.772 3.28 1.535 3.278-1.063 3.28 4.489 3.28-1.181 3.278 3.189 3.28-2.48 3.28 3.189 3.278-.237 3.28-8.268 3.28 11.34 3.278-3.072 3.28 1.89 3.28-3.78 3.279.119 3.279 6.26 3.28-5.08 3.279 3.663 3.279 1.772 3.28-1.3 3.279-1.417 3.279-2.717 3.28 3.071 3.279-.118 3.279 2.717 3.28 1.063 3.279-3.898 3.279 1.417 3.28-1.417 3.279 4.607 3.279-1.654 3.28.945 3.279-.945 3.279 1.654 3.28-.473 3.279-2.008 3.279 1.772 3.28 2.126 3.279-.709 3.279 2.127 3.28-3.426 3.279-2.126 3.279 3.19 3.28-3.78 3.279 5.433 3.279-1.063 3.28 2.599 3.279-.827 3.279-3.78 3.28 2.362 3.279-1.417 3.279 5.08 3.28-5.553 3.279 3.308 3.28-1.3 3.278 1.536 3.28-.59 3.28-2.127 3.278 3.426 3.28-3.19h3.28l3.278 1.3 3.28-1.181 3.28-.591 3.278 3.544 3.28-1.654 3.28-3.19 3.278 4.135 3.28.472 3.28-4.016 3.278 1.3 3.28 2.244 3.28 2.717 3.278-6.852 3.28.119 3.28-3.19 3.279 9.568 3.279-4.016 3.28-8.623 3.279 3.307 3.279 2.363 3.28-9.332 3.279 10.159 3.279-4.843 3.28 6.024 3.279-10.04 3.279-4.844 3.28 10.041 3.279-9.096 3.279-9.45 3.28 13.585 3.279-16.538 3.279-21.971 3.28-1.89" fill="none" stroke="#ff7f0e" stroke-linecap="square" stroke-width="1.5" id="line2d_13"/><path d="M57.6 307.584V41.472" fill="none" stroke="#000" stroke-linecap="square" stroke-width=".8" id="patch_3"/><path d="M414.72 307.584V41.472" fill="none" stroke="#000" stroke-linecap="square" stroke-width=".8" id="patch_4"/><path d="M57.6 307.584h357.12" fill="none" stroke="#000" stroke-linecap="square" stroke-width=".8" id="patch_5"/><path d="M57.6 41.472h357.12" fill="none" stroke="#000" stroke-linecap="square" stroke-width=".8" id="patch_6"/><text x="236.16" y="35.472" font-family="DejaVu Sans" font-size="12" font-weight="400" text-anchor="middle" id="text_14">Coin Flips for arcsin(x)+sqrt(1-x*x)-1</text><g id="legend_1"><path d="M64.6 78.828h243.275q2 0 2-2V48.472q0-2-2-2H64.6q-2 0-2 2v28.356q0 2 2 2z" fill="#fff" opacity=".8" stroke="#ccc" id="patch_7"/><path d="M66.6 54.57h20" fill="none" stroke="#1f77b4" stroke-linecap="square" stroke-width="1.5" id="line2d_14"/><text x="94.6" y="58.07" font-family="DejaVu Sans" font-size="10" font-weight="400" id="text_15">Coin Flip Lower Bound (Mendo)</text><path d="M66.6 69.249h20" fill="none" stroke="#ff7f0e" stroke-linecap="square" stroke-width="1.5" id="line2d_16"/><text x="94.6" y="72.749" font-family="DejaVu Sans" font-size="10" font-weight="400" id="text_16">Avg. Coins Flipped arcsin(x)+sqrt(1-x*x)-1</text></g></g></g><defs><clipPath id="p6280bbabc6"><path d="M57.6 41.472h357.12v266.112H57.6z"/></clipPath></defs></svg>
